X:1
T:Mrs. Gordon of Aerdour’s Strathspey [2]
T:Mrs. Gordon of Aerdour’s Strathspey [2]
T:William Christie
C:William Christie
L:1/8
M:4/4
K:A
V:1 treble 
V:1
{ef} g |S a>b (b/a/).g/.f/{f} e2 e>c | Tf>ef>g{b} Ta>ga>f | e>f (f/e/).d/.c/{c} B2 TB>c | %4
 A<c F<A{F} E2 E2 :| F | A>ce>c (d/c/).B/.A/ (B/A/).G/.F/ | .E(EAc) e(EAc) | e<f c<e B<c A<B | %9
 F<A D>F{F} E2 E>F | A>ce>c (d/c/).B/.A/ (B/A/).G/.F/ | .E(EAc) .e(E/4A/4c/4) | ecfc acbc | %13
S{g} a>e (f/e/).d/.c/ B<bg<e || %14

